svgs/light/flag.svg

<svg xmlns="http://www.w3.org/2000/svg" viewBox="0 0 512 512"><!--! Font Awesome Pro 6.0.0-alpha3 by @fontawesome - https://fontawesome.com License - https://fontawesome.com/license (Commercial License) --><path d="M498.5 6.232c-19.76-11.99-38.92-3.226-41.61-1.1c-41.75 19.06-76.02 27.94-107.8 27.94c-28.92 0-51.74-7.321-75.9-15.09C247.5 8.844 220.1 .3094 185.2 .3055C159 .3055 121.3 2.641 32 38.84V16.01c0-8.836-7.164-15.1-16-15.1S0 7.172 0 16.01V496C0 504.8 7.164 512 16 512S32 504.8 32 496v-104.9c14.47-6.441 77.75-38.93 148.8-38.93c36.8 0 67.14 7.713 99.25 15.89c30.74 7.82 62.49 15.9 99.31 15.9c35.46 0 72.08-7.553 111.1-23.09c12.28-4.781 20.38-16.6 20.38-29.78L512 32.35C512 22.01 507.4 11.6 498.5 6.232zM479.7 331c-36.11 14.07-68.93 20.91-100.3 20.91c-32.81 0-61.26-7.238-91.39-14.9C255.4 328.7 221.7 320.2 180.8 320.2c-45.89 0-93.61 11.31-145.9 34.58L32 356.1V73.37l28.01-11.35c49.34-19.98 90.29-29.7 125.2-29.7c30.74 0 53.8 7.406 78.2 15.24c25.44 8.172 51.75 16.62 85.69 16.62c69.43 0 130.9-32.17 130.9-32.17L479.7 331z"/></svg>

<svg xmlns="http://www.w3.org/2000/svg" viewBox="0 0 512 512"><!-- Font Awesome Pro 6.0.0-alpha2 by @fontawesome - https://fontawesome.com License - https://fontawesome.com/license (Commercial License) --><path d="M498.535 6.234C478.777 -5.758 459.604 3.02 456.914 4.246C415.16 23.305 380.9 32.18 349.092 32.18C320.168 32.18 297.35 24.852 273.193 17.086C247.523 8.844 220.979 0.316 185.211 0.312C159.012 0.312 121.332 2.641 32 38.836V16.008C32 7.172 24.836 0.012 16 0.012S0 7.172 0 16.008V496C0 504.836 7.164 512 16 512S32 504.836 32 496V391.094C46.475 384.652 109.742 352.164 180.844 352.164C217.648 352.164 247.982 359.875 280.096 368.047C310.834 375.867 342.586 383.945 379.4 383.945C414.859 383.945 451.482 376.391 491.365 360.852H491.367C503.648 356.07 511.74 344.246 511.75 331.066L512 32.352C512.008 22.008 507.375 11.598 498.535 6.234ZM479.748 331.039C443.639 345.105 410.816 351.945 379.4 351.945C346.594 351.945 318.141 344.707 288.014 337.043C255.395 328.746 221.668 320.164 180.844 320.164C134.953 320.164 87.238 331.477 34.973 354.746L32 356.07V73.367L60.01 62.016C109.348 42.031 150.303 32.312 185.207 32.312C215.951 32.312 239.004 39.719 263.406 47.555C288.848 55.727 315.156 64.18 349.092 64.18C418.52 64.18 479.998 32.008 479.998 32.008L479.748 331.039Z"/></svg>
